Sinchiguano/Integration-MoveIt-with-Ros-Gazebo/humanMotion_ws/src/pr2_moveit/script/pict2/joint_data.csv
r_shoulder_pan_joint,r_shoulder_lift_joint,r_upper_arm_roll_joint,r_elbow_flex_joint,r_forearm_roll_joint,r_wrist_flex_joint,r_wrist_roll_joint,RWrist = 6x,RWrist = 6y,RElbow = 7x,RElbow = 7y,RShoulder = 8x,RShoulder = 8y
-2.0902269414,0.1857901796,-1.3833085181,-0.4857188894,2.036907742,-1.9708923119,0.7659422863,0.712962963,0.3913043478,0.712962963,0.1358695652,0.5,0.6956521739
-0.7404214403,0.9246866842,0.1268748801,-1.5573767161,-2.5645780683,-1.0980573977,1.3936647853,0.6759259259,0.4184782609,0.6666666667,0.1793478261,0.4907407407,0.7010869565
-1.5453505982,1.2242588974,-3.2265159265,-1.7245574242,-1.0611115279,-1.0156762935,2.9702875344,0.6805555556,0.3804347826,0.6574074074,0.125,0.4722222222,0.7010869565
0.1047753803,-0.1961152996,-0.4841592406,-1.1557929895,1.9402295383,-1.0742378201,2.395189126,0.6481481481,0.347826087,0.6296296296,0.1304347826,0.4722222222,0.6956521739
-2.108082972,-0.0719898006,-2.4137711293,-0.3180349475,2.8543785776,-1.8038106105,-3.0359634422,0.6805555556,0.5923913043,0.6574074074,0.652173913,0.4861111111,0.6902173913
-0.7448450113,-0.1272668646,-1.9340002331,-2.0605415943,-2.049257635,-0.471831624,2.801663255,0.6805555556,0.6195652174,0.6759259259,0.8315217391,0.4861111111,0.7282608696
-0.2036798391,1.2526032086,-0.183181367,-0.9412923035,-1.761320642,-0.261192102,-1.0713678052,0.6759259259,0.6086956522,0.6805555556,0.8206521739,0.4814814815,0.6902173913
-2.0747887576,-0.0785034595,-2.3455024766,-1.2432156692,-0.3940452721,-1.0144275611,-1.9373753529,0.6712962963,0.6086956522,0.6759259259,0.8152173913,0.4768518519,0.6956521739
-2.1349834057,1.016547286,-2.7449553262,-0.8225267185,-2.5375951968,-1.8482199021,-2.1482966696,0.6851851852,0.6141304348,0.6851851852,0.8423913043,0.462962963,0.7282608696
-1.4518113361,0.2581422214,-2.7147083802,-1.5886726188,-2.8482269647,-0.6176198009,0.9192652047,0.6944444444,0.6141304348,0.6388888889,0.6630434783,0.4768518519,0.7173913043
-1.145725463,1.1093812582,0.3730269707,-0.2701194401,1.0986949511,-0.2931372417,-2.0651443548,0.6851851852,0.6086956522,0.6805555556,0.8315217391,0.4814814815,0.7173913043
-1.3079938477225408,0.12192986515809318,-2.822054306231439,-1.2349222028113438,-2.759682475692218,-0.20204681665636604,-0.4801843184957084,0.6805555555555556,0.6195652173913043,0.6620370370370371,0.8260869565217391,0.4722222222222222,0.717391304347826
0.10225806219252132,1.0606110724965343,-1.3778396780602633,-1.3751944398805267,-0.9396447141911342,-0.3267422295641156,0.7835295079147326,0.6574074074074074,0.592391304347826,0.6666666666666666,0.7934782608695652,0.4722222222222222,0.7065217391304348
-0.8862167330541422,-0.05160793400867841,-1.1763979506678877,-0.7517996462736278,-0.9701249444550695,-1.7400859155226498,0.44145726499276927,0.6851851851851852,0.5978260869565217,0.6851851851851852,0.8315217391304348,0.47685185185185186,0.6847826086956522
-1.8003255516616314,0.34273496446602514,0.37262286730110716,-0.5906632222641959,-0.33951572628421234,-0.5190666879760102,1.4544548407050168,0.6759259259259259,0.6086956521739131,0.6712962962962963,0.7880434782608695,0.48148148148148145,0.6902173913043478
-0.02765686631468256,0.7026155434217304,-2.154666624777019,-0.8713665270200233,-2.0720686854749815,-1.6028526871465147,0.990903589169025,0.6712962962962963,0.6141304347826086,0.6759259259259259,0.8369565217391305,0.4722222222222222,0.717391304347826
-1.8287523645069452,0.4555432191678789,-1.580542988795787,-1.2960327446125217,1.9749333241972922,-0.7169734906405212,1.5241257992829516,0.6805555555555556,0.6141304347826086,0.6759259259259259,0.842391304347826,0.48148148148148145,0.75
-2.107513538571385,0.4214878867884633,-1.8999291335232555,-0.5474956144730094,0.4516232377949132,-0.12862195640336727,0.19007048433002582,0.6805555555555556,0.625,0.6851851851851852,0.782608695652174,0.4722222222222222,0.7228260869565217
0.05741520229936592,0.8747859092696105,0.46550926901400125,-0.5866136661894155,0.9510710669903073,-1.9776598767377436,-2.652844620392422,0.6759259259259259,0.6141304347826086,0.6712962962962963,0.842391304347826,0.4675925925925926,0.7282608695652174
-0.3547734836891683,0.4302248529827456,0.39147243360057526,-1.6730509280860657,-0.512574369294192,-0.48397558841388677,-1.525192665939373,0.6666666666666666,0.592391304347826,0,0,0.4722222222222222,0.7336956521739131
-1.2849184982565711,0.2744247497933684,-2.7767559438943863,-1.350750901622884,-2.63201448535083,-0.46976138420868674,-1.370986864728785,0.6851851851851852,0.6141304347826086,0.6851851851851852,0.8369565217391305,0.4722222222222222,0.717391304347826
-0.7808493259211537,-0.02023420240534468,-2.975187669321895,-0.5755988620997405,1.697559582764752,-0.34956172537058605,0.16186242185385646,0.6805555555555556,0.6086956521739131,0.6805555555555556,0.8260869565217391,0.47685185185185186,0.7282608695652174
0.050567397584432516,0.8360357032495552,-1.2430473326705394,-0.42647457794810184,1.0026527684895044,-0.3740050792694092,-2.017057705041123,0.6666666666666666,0.6086956521739131,0.6712962962962963,0.8315217391304348,0.4722222222222222,0.7282608695652174
-0.5698978411345728,0.39547561001961584,-2.446750998031348,-1.3532626814443853,1.0192250716838807,-1.8080013062572107,-2.467124218060772,0.6759259259259259,0.6195652173913043,0.6666666666666666,0.842391304347826,0.47685185185185186,0.7228260869565217
-0.09533409742445897,0.9853509390091292,-1.0847601155750453,-0.22769991217567576,-2.3165482033367892,-0.9668876096373424,-1.7601500193019517,0.6666666666666666,0.6032608695652174,0.6712962962962963,0.8315217391304348,0.4675925925925926,0.7336956521739131
-1.9584231904103933,-0.2619571448053932,-2.429365608189255,-0.9917018300293245,2.0488039109637404,-0.16915835719555616,-2.1878133009885197,0.6851851851851852,0.6141304347826086,0.6805555555555556,0.842391304347826,0.47685185185185186,0.717391304347826
-1.6705844812186543,1.1444185943436112,-0.6748509874567388,-2.003077927404782,-1.201775825004069,-0.15286860240157707,0.9208899025322346,0.6851851851851852,0.6032608695652174,0.5416666666666666,0.7282608695652174,0.46296296296296297,0.7336956521739131
-1.5236712133834476,-0.010568337742891176,-1.8388854679651556,-0.3374376147881615,-2.1722215961714304,-0.4573463326785714,2.5708410151731096,0.6805555555555556,0.5978260869565217,0.6527777777777778,0.8315217391304348,0.48148148148148145,0.6956521739130435
